X:189
T: SO MANCHER STEIGT HERUM
N: B0674
O: Europa, Mitteleuropa, Deutschland
R: Moral - Lied, Vergaenglichkeit, Tod
M: 2/4
L: 1/16
K: F
c2 | =B3cd3c | A4z2
A2 | ^G3AB3A | F4z2
F2 | E2F2G2A2 | B2e4
d2 | c2B2A2G2 | F4z2
c2 | d2c2A2F2 | E4z2
c2 | d2c2B2G2 | F4z2
c2 | d2c2A2F2 | E4z2
c2 | (3e2d2c2(3B2A2G2 | F4z2
c2 | c6E2 | F4z2c2 | c6E2 | F4z2

@@@ Tune index: 2407
